flaticon/arrows/import.svg

<svg xmlns="http://www.w3.org/2000/svg" width="32" height="32" viewBox="0 0 24 24">
    <path d="M 23.554688 16.445312 L 20.359375 16.445312 C 20.984375 15.089844 21.332031 13.585938 21.332031 12 C 21.332031 10.753906 21.117188 9.558594 20.722656 8.445312 L 23.554688 8.445312 C 23.800781 8.445312 24 8.246094 24 8 C 24 7.753906 23.800781 7.554688 23.554688 7.554688 L 20.359375 7.554688 C 18.671875 3.886719 14.960938 1.332031 10.667969 1.332031 C 4.785156 1.332031 0 6.117188 0 12 C 0 17.882812 4.785156 22.667969 10.667969 22.667969 C 14.605469 22.667969 18.050781 20.519531 19.898438 17.332031 L 23.554688 17.332031 C 23.800781 17.332031 24 17.132812 24 16.890625 C 24 16.644531 23.800781 16.445312 23.554688 16.445312 Z M 10.667969 21.777344 C 5.273438 21.777344 0.890625 17.390625 0.890625 12 C 0.890625 6.609375 5.273438 2.222656 10.667969 2.222656 C 14.457031 2.222656 17.75 4.394531 19.371094 7.554688 L 10.851562 7.554688 L 12.757812 5.648438 C 12.933594 5.472656 12.933594 5.191406 12.757812 5.019531 C 12.585938 4.84375 12.304688 4.84375 12.128906 5.019531 L 9.464844 7.683594 C 9.421875 7.726562 9.390625 7.777344 9.367188 7.832031 C 9.324219 7.9375 9.324219 8.0625 9.367188 8.167969 C 9.390625 8.222656 9.421875 8.273438 9.464844 8.316406 L 12.128906 10.980469 C 12.21875 11.066406 12.332031 11.109375 12.445312 11.109375 C 12.558594 11.109375 12.671875 11.066406 12.757812 10.980469 C 12.933594 10.808594 12.933594 10.527344 12.757812 10.351562 L 10.851562 8.445312 L 19.773438 8.445312 C 20.203125 9.546875 20.445312 10.746094 20.445312 12 C 20.445312 13.601562 20.054688 15.109375 19.371094 16.445312 L 10.851562 16.445312 L 12.757812 14.535156 C 12.933594 14.363281 12.933594 14.082031 12.757812 13.90625 C 12.585938 13.734375 12.304688 13.734375 12.128906 13.90625 L 9.464844 16.574219 C 9.421875 16.613281 9.390625 16.664062 9.367188 16.71875 C 9.324219 16.828125 9.324219 16.949219 9.367188 17.058594 C 9.390625 17.113281 9.421875 17.164062 9.464844 17.203125 L 12.128906 19.871094 C 12.21875 19.957031 12.332031 20 12.445312 20 C 12.558594 20 12.671875 19.957031 12.757812 19.871094 C 12.933594 19.695312 12.933594 19.414062 12.757812 19.242188 L 10.851562 17.332031 L 18.855469 17.332031 C 17.109375 20.007812 14.089844 21.777344 10.667969 21.777344 Z M 10.667969 21.777344"/>
</svg>

<svg xmlns="http://www.w3.org/2000/svg" width="32" height="32" viewBox="0 0 24 24">
    <path d="M23.555 16.445h-3.196c.625-1.355.973-2.86.973-4.445 0-1.246-.215-2.441-.61-3.555h2.833a.445.445 0 1 0 0-.89h-3.196c-1.687-3.668-5.398-6.223-9.691-6.223C4.785 1.332 0 6.117 0 12c0 5.883 4.785 10.668 10.668 10.668 3.937 0 7.383-2.148 9.23-5.336h3.657a.444.444 0 1 0 0-.887zm-12.887 5.332C5.273 21.777.891 17.391.891 12c0-5.39 4.382-9.777 9.777-9.777 3.789 0 7.082 2.172 8.703 5.332h-8.52l1.907-1.907a.44.44 0 0 0 0-.628.44.44 0 0 0-.63 0L9.466 7.684a.454.454 0 0 0 0 .633l2.664 2.663c.09.086.203.13.316.13a.44.44 0 0 0 .313-.13.44.44 0 0 0 0-.628l-1.906-1.907h8.921a9.725 9.725 0 0 1-.402 8h-8.52l1.907-1.91a.44.44 0 0 0 0-.629.448.448 0 0 0-.63 0l-2.663 2.668a.411.411 0 0 0-.098.145.464.464 0 0 0 0 .34.411.411 0 0 0 .098.144l2.664 2.668c.09.086.203.129.316.129a.44.44 0 0 0 .313-.129.44.44 0 0 0 0-.629l-1.906-1.91h8.003a9.77 9.77 0 0 1-8.187 4.445zm0 0"/>
</svg>
